src/extras-openmoji/healthcare/E312.svg

<svg id="emoji" viewBox="0 0 72 72" xmlns="http://www.w3.org/2000/svg">
  <g id="grid">
    <path fill="#b3b3b3" d="M68,4V68H4V4H68m4-4H0V72H72V0Z"/>
    <path fill="none" stroke="#00a5ff" stroke-miterlimit="10" stroke-width="0.1" d="M12.923,10.9583H59.0769A1.9231,1.9231,0,0,1,61,12.8814V59.0352a1.9231,1.9231,0,0,1-1.9231,1.9231H12.9231A1.9231,1.9231,0,0,1,11,59.0352V12.8813A1.923,1.923,0,0,1,12.923,10.9583Z"/>
    <rect x="16" y="4" rx="2.2537" width="40" height="64" fill="none" stroke="#00a5ff" stroke-miterlimit="10" stroke-width="0.1"/>
    <rect x="16" y="4" rx="2.2537" width="40" height="64" transform="translate(72) rotate(90)" fill="none" stroke="#00a5ff" stroke-miterlimit="10" stroke-width="0.1"/>
    <circle cx="36" cy="36" r="29" fill="none" stroke="#00a5ff" stroke-miterlimit="10" stroke-width="0.1"/>
  </g>
  <g id="color">
    <path fill="#d22f27" d="M22.5593,44.7178c-.5773-2.5154-2.0374-10.5013,1.2395-15.72a6.6807,6.6807,0,0,1,2.559-2.33c2.4455-1.2931,7.5647-2.9953,13.6578.7518V40.9721a70.9621,70.9621,0,0,1-7.6985.6768,3.0564,3.0564,0,0,0-2.4926,1.32c-1.3449,1.9631-4.0426,5.1737-6.3169,3.3551A2.8422,2.8422,0,0,1,22.5593,44.7178Z"/>
    <path fill="#d22f27" d="M40.0156,27.4084V40.9721A14.93,14.93,0,0,0,47.7761,36s2.644-2.8227,4.6357-3.3378c0,0,3.5712-1.7856-.79-3.7429A32.7714,32.7714,0,0,0,40.0156,27.4084Z"/>
  </g>
  <g id="line">
    <path fill="none" stroke="#000" stroke-linecap="round" stroke-linejoin="round" stroke-width="2" d="M22.5593,44.7178c-.5773-2.5154-2.0374-10.5013,1.2395-15.72a6.6807,6.6807,0,0,1,2.559-2.33c2.4455-1.2931,7.5647-2.9953,13.6578.7518V40.9721a70.9621,70.9621,0,0,1-7.6985.6768,3.0564,3.0564,0,0,0-2.4926,1.32c-1.3449,1.9631-4.0426,5.1737-6.3169,3.3551A2.8422,2.8422,0,0,1,22.5593,44.7178Z"/>
    <path fill="none" stroke="#000" stroke-linecap="round" stroke-linejoin="round" stroke-width="2" d="M40.0156,27.4084V40.9721A14.93,14.93,0,0,0,47.7761,36s2.644-2.8227,4.6357-3.3378c0,0,3.5712-1.7856-.79-3.7429A32.7714,32.7714,0,0,0,40.0156,27.4084Z"/>
  </g>
</svg>

<svg viewBox="0 0 72 72" xmlns="http://www.w3.org/2000/svg"><path fill="#b3b3b3" d="M68 4v64H4V4h64m4-4H0v72h72V0z"/><path fill="none" stroke="#00a5ff" stroke-miterlimit="10" stroke-width=".1" d="M12.923 10.958h46.154A1.923 1.923 0 0161 12.881v46.154a1.923 1.923 0 01-1.923 1.923H12.923A1.923 1.923 0 0111 59.035V12.881a1.923 1.923 0 011.923-1.923z"/><rect x="16" y="4" rx="2.254" width="40" height="64" fill="none" stroke="#00a5ff" stroke-miterlimit="10" stroke-width=".1"/><rect x="16" y="4" rx="2.254" width="40" height="64" transform="rotate(90 36 36)" fill="none" stroke="#00a5ff" stroke-miterlimit="10" stroke-width=".1"/><circle cx="36" cy="36" r="29" fill="none" stroke="#00a5ff" stroke-miterlimit="10" stroke-width=".1"/><path d="M22.56 44.718c-.578-2.516-2.038-10.502 1.239-15.72a6.68 6.68 0 012.559-2.33c2.445-1.293 7.565-2.995 13.658.752v13.552a70.962 70.962 0 01-7.699.677 3.056 3.056 0 00-2.493 1.32c-1.344 1.963-4.042 5.174-6.316 3.355a2.842 2.842 0 01-.949-1.606zm17.456-17.31v13.564A14.93 14.93 0 0047.776 36s2.644-2.823 4.636-3.338c0 0 3.571-1.785-.79-3.743a32.771 32.771 0 00-11.606-1.51z" stroke-linecap="round" stroke-miterlimit="10" stroke-width="6" stroke="#fff" fill="none" stroke-linejoin="round"/><path d="M22.56 44.718c-.578-2.516-2.038-10.502 1.239-15.72a6.68 6.68 0 012.559-2.33c2.445-1.293 7.565-2.995 13.658.752v13.552a70.962 70.962 0 01-7.699.677 3.056 3.056 0 00-2.493 1.32c-1.344 1.963-4.042 5.174-6.316 3.355a2.842 2.842 0 01-.949-1.606zm17.456-17.31v13.564A14.93 14.93 0 0047.776 36s2.644-2.823 4.636-3.338c0 0 3.571-1.785-.79-3.743a32.771 32.771 0 00-11.606-1.51z" fill="#d22f27"/><path d="M22.56 44.718c-.578-2.516-2.038-10.502 1.239-15.72a6.68 6.68 0 012.559-2.33c2.445-1.293 7.565-2.995 13.658.752v13.552a70.962 70.962 0 01-7.699.677 3.056 3.056 0 00-2.493 1.32c-1.344 1.963-4.042 5.174-6.316 3.355a2.842 2.842 0 01-.949-1.606zm17.456-17.31v13.564A14.93 14.93 0 0047.776 36s2.644-2.823 4.636-3.338c0 0 3.571-1.785-.79-3.743a32.771 32.771 0 00-11.606-1.51z" fill="none" stroke="#000" stroke-linecap="round" stroke-linejoin="round" stroke-width="2"/></svg>
